!! 00000] TT[WS
!!!OTL: Zou xikou
!!!ARE: Asia, China,ÿShanxi Linxian
!! Ethnic Group: Han
!! WI, 182
!!!SCT: J0215
!!!YEM: Copyright 1995, estate of Helmut Schaffrath.
**kern
*ICvox
*Ivox
*M2/4
*k[]
*C:
{8dd
16dd
16dd
16cc
16dd
8gg
=1
8.ee
16dd
8cc
8dd
=2
8gg
16gg
16ee
16ee
16dd
16cc
16dd
=3
8.g
16a
8f
8d}
=4
{8a
4dd
8gg
=5
8ee
16dd
16ee
8.g
16a
=6
16cc
8cc
16dd
16a
16g
16f
16e
=7
2d}
==
!!!AGN: Xiaodiao. Qingge
!!!ONB: ESAC (Essen Associative Code) Database: CHINA
!!!AMT: simple duple
!!!AIN: vox
!!!EED: Helmut Schaffrath
!!!EEV: 1.0
*-
